X: 27567
T: Money In Both Pockets
R: reel
M: 4/4
K: Dmajor
dAFA dAFA|dAFB g2 fe|dAFA dAFA|GE E/E/E GABc|
dA A/A/A dAFA|dAFB g2 fe|dAFA dAFA|GE E/E/E GABc||
dcdf edcA|B/c/d ef g2 fe|dcdf edcA|GE E/E/E GABc|
dcdf edcA|B/c/d ef g2 fg|abaf gfed|cdef g2||

